X: 1
T: Khum Khuma [Am]
O: Armenia
M: 2/4
L: 1/16
K: Ador
FG \
| A2z2 A2z2 | ABc2- c2Bc | dcde cBA2 | A2cB A2Bc |
| dcde cBA2 | A2cB  A2cB | cBcB cdcB | A2A2 z2  |]
%%sep 1 1 500
